X:251
T:Most jöttem gyuláról
M:4/4
L:1/4
K:Bb
B<B A<F | G2 g2 |
f<f d<c | d2 d z |
f g a f | f/e/d/c/ d<F |
B<B A<F | G2 G z |

